src/assets/images/partner-logo-3.svg

<svg width="128" height="25" viewBox="0 0 128 25" fill="none" xmlns="http://www.w3.org/2000/svg">
<path d="M0.894653 24.7813V0.00012207C4.11158 0.00012207 7.32851 0.00012207 10.5454 0.00012207C13.7624 0.00012207 16.9669 0.00012207 20.1602 0.00012207V5.51857H16.362C15.3911 5.51857 14.543 5.38117 13.8164 5.10412C13.0888 4.8282 12.4287 4.48133 11.834 4.0635C11.2393 3.6468 10.6716 3.21659 10.1309 2.77511C9.59253 2.33364 9.02483 1.93721 8.42786 1.58583C7.83313 1.2322 7.16181 0.988938 6.4139 0.856045V11.7308C6.85543 10.8726 7.46593 10.1451 8.24764 9.55042C9.03159 8.95578 9.96198 8.64719 11.041 8.62242C11.7011 8.62242 12.3792 8.69449 13.073 8.83865C13.7669 8.98281 14.4607 9.1157 15.1546 9.23508C15.8484 9.35558 16.5197 9.395 17.1685 9.3522C17.8196 9.30715 18.4436 9.09768 19.0383 8.72152L18.0786 14.2084C17.3093 14.5148 16.5761 14.6353 15.88 14.5688C15.1861 14.5035 14.5193 14.3334 13.8795 14.0598C13.242 13.7839 12.6202 13.4865 12.0142 13.1678C11.4105 12.8468 10.8045 12.5709 10.1985 12.3389C9.5914 12.108 8.97865 12.0089 8.36027 12.0416C7.74415 12.0754 7.09535 12.3119 6.4139 12.7534V24.7813H0.894653Z" fill="#808991"/>
<path d="M36.9439 24.7813L35.3579 20.0242H27.9239L26.3379 24.7813H20.5529L28.7484 0.00012207H34.565L42.7605 24.7813H36.9439ZM35.1282 19.2944L29.1133 1.12183L28.2528 3.76618C27.7898 5.13341 27.5364 6.4004 27.4913 7.56828C27.4485 8.73391 27.5105 9.82859 27.6761 10.8523C27.8405 11.8772 28.023 12.857 28.2212 13.794C28.4195 14.731 28.5389 15.6522 28.5817 16.5555C28.6267 17.4564 28.4938 18.3698 28.1852 19.2944H35.1282Z" fill="#808991"/>
<path d="M57.9897 0.00012207H63.4774V24.7813H57.9897V21.5108C56.8206 22.4152 55.5264 23.1866 54.106 23.8263C52.6845 24.4637 51.2247 24.7813 49.7266 24.7813C48.6273 24.7813 47.7183 24.573 47.0008 24.1552C46.2856 23.7351 45.7235 23.1776 45.3158 22.4839C44.9069 21.7901 44.6197 21.0096 44.4552 20.1413C44.2896 19.2708 44.2074 18.3732 44.2074 17.4474V0.00012207H49.7266V5.51857C49.7266 6.7957 49.4845 7.98498 49.0013 9.08642C48.5169 10.189 47.9886 11.3118 47.4153 12.456C47.0188 13.2286 46.6922 14.1093 46.4376 15.1004C46.1853 16.0915 46.0592 17.0949 46.0592 18.1096C46.0592 19.1221 46.2135 20.0535 46.5232 20.9027C46.8319 21.7496 47.3387 22.4208 48.0416 22.9163C48.7467 23.4119 49.7052 23.6484 50.9161 23.6236C52.2159 23.5819 53.4718 23.27 54.6827 22.6866C55.8958 22.1009 56.9985 21.4004 57.9897 20.5828V0.00012207Z" fill="#808991"/>
<path d="M75.3004 24.7813C74.0659 24.7813 72.8596 24.5234 71.6825 24.0065C70.5043 23.4873 69.441 22.6945 68.4926 21.6279C67.5464 20.5592 66.7918 19.1987 66.2308 17.5465C65.6688 15.8955 65.3883 13.9336 65.3883 11.6632C65.3883 10.2757 65.537 8.89496 65.8344 7.51873C66.1317 6.14024 66.6104 4.88564 67.2716 3.75267C67.9317 2.61744 68.8181 1.70971 69.9299 1.02723C71.0438 0.342491 72.4146 0.00012207 74.0434 0.00012207H84.6538V5.51857H79.9276C79.3779 5.51857 78.8823 5.39244 78.4408 5.14016C77.9992 4.88564 77.5734 4.57142 77.1657 4.19865C76.7602 3.82362 76.3299 3.44408 75.8771 3.05892C75.4266 2.6715 74.9039 2.35616 74.3092 2.1129C73.1648 1.62975 72.1567 1.45406 71.286 1.58583C70.4142 1.71872 69.6877 2.07686 69.1053 2.66249C68.5219 3.24587 68.0702 3.96665 67.7492 4.82482C67.4304 5.68412 67.2378 6.60424 67.1725 7.5863C67.106 8.56611 67.15 9.50537 67.3031 10.4063C67.6118 12.1249 68.2561 13.6667 69.236 15.0328C70.2182 16.4001 71.446 17.4632 72.9215 18.2223C74.3993 18.9825 76.0179 19.3192 77.7784 19.2314C79.013 19.166 80.181 18.8079 81.2837 18.1592C82.3853 17.5082 83.1456 16.5983 83.5635 15.4293C83.9803 14.2197 83.9476 13.3063 83.4644 12.6903C82.98 12.072 82.0992 12.0371 80.8197 12.5867C80.092 12.8964 79.3486 13.2557 78.5894 13.6634C77.8291 14.0688 77.0407 14.3548 76.224 14.5193C75.4097 14.6848 74.53 14.5812 73.5838 14.2084L72.6241 8.72152C73.2189 9.09768 73.8406 9.30715 74.4894 9.3522C75.1405 9.395 75.814 9.35558 76.5079 9.23508C77.2017 9.1157 77.8956 8.98281 78.5894 8.83865C79.2833 8.69449 79.9602 8.62242 80.6214 8.62242C81.7027 8.62242 82.5284 8.87694 83.0994 9.38374C83.6728 9.89166 84.0749 10.5359 84.3069 11.3163C84.5378 12.0979 84.6538 12.9178 84.6538 13.776C84.6741 15.2085 84.4928 16.5814 84.1087 17.8934C83.7235 19.2032 83.1355 20.3756 82.3425 21.4117C81.5495 22.4478 80.5685 23.27 79.4004 23.8759C78.2312 24.4795 76.865 24.7813 75.3004 24.7813Z" fill="#808991"/>
<path d="M98.8273 19.3305C99.707 19.3969 100.632 19.3305 101.603 19.1322C102.572 18.934 103.475 18.5984 104.31 18.1232C105.148 17.649 105.809 17.015 106.293 16.2221L106.955 16.5555C106.339 18.0961 105.556 19.4904 104.608 20.736C103.662 21.9793 102.549 22.9648 101.269 23.6912C99.9919 24.4187 98.5276 24.7813 96.8764 24.7813C95.0674 24.7813 93.5029 24.4074 92.1816 23.6596C90.8593 22.9096 89.7633 21.9016 88.8926 20.6369C88.0242 19.3699 87.3799 17.9599 86.9598 16.4068C86.5419 14.8515 86.3335 13.2703 86.3335 11.6632C86.3335 10.2757 86.4822 8.89496 86.7795 7.51873C87.0769 6.14024 87.5556 4.88564 88.2168 3.75267C88.8769 2.61744 89.7633 1.70971 90.875 1.02723C91.989 0.342491 93.3621 0.00012207 94.9931 0.00012207H105.599V5.51857H100.873C100.323 5.51857 99.8275 5.39244 99.3859 5.14016C98.9467 4.88564 98.5231 4.57142 98.1154 4.19865C97.7065 3.82362 97.2774 3.44408 96.8268 3.05892C96.3763 2.6715 95.8536 2.35616 95.2589 2.1129C94.1111 1.62975 93.1019 1.45406 92.2312 1.58583C91.3628 1.71872 90.6363 2.07686 90.0505 2.66249C89.4671 3.24587 89.0154 3.96665 88.6944 4.82482C88.3756 5.68412 88.183 6.60424 88.1177 7.5863C88.0512 8.56611 88.0951 9.50537 88.2483 10.4063C88.2934 10.6293 88.343 10.8557 88.397 11.0866C88.4533 11.3186 88.5153 11.554 88.5817 11.7938C89.0233 10.8929 89.6338 10.1451 90.4155 9.55042C91.1961 8.95578 92.1377 8.64719 93.2404 8.62242C93.9219 8.62242 94.6101 8.69449 95.304 8.83865C96.0001 8.98281 96.6894 9.1157 97.372 9.23508C98.0534 9.35558 98.7191 9.395 99.3679 9.3522C100.019 9.30715 100.643 9.09768 101.238 8.72152L100.278 14.2084C99.3769 14.5598 98.5299 14.6702 97.7369 14.5373C96.944 14.4055 96.178 14.1533 95.4391 13.7805C94.7002 13.4054 93.9771 13.0462 93.272 12.7038C92.5691 12.3614 91.8539 12.1475 91.1274 12.0596C90.3997 11.9729 89.6507 12.1486 88.8791 12.5867C89.6507 14.4607 90.9066 16.0093 92.6457 17.2312C94.3871 18.4543 96.4484 19.1536 98.8273 19.3305Z" fill="#808991"/>
<path d="M108.501 0.00012207H127.771V5.51857C126.537 5.51857 125.209 5.74381 123.788 6.1943C122.367 6.64478 120.979 7.26871 119.625 8.06382C118.27 8.85667 117.052 9.75989 115.971 10.7712C115.157 11.5641 114.463 12.4234 113.89 13.348C113.315 14.2738 112.957 15.1714 112.813 16.0419C112.671 16.9136 112.826 17.6456 113.277 18.2403C113.73 18.8349 114.562 19.1863 115.773 19.2944C116.413 19.3609 117.162 19.3395 118.021 19.2314C118.879 19.121 119.76 18.9554 120.661 18.7358C121.565 18.514 122.414 18.2538 123.207 17.9565C124.002 17.6592 124.653 17.3348 125.158 16.9834L127.771 22.0379C127.02 22.5908 126.083 23.0762 124.96 23.4929C123.835 23.9108 122.623 24.2306 121.324 24.4525C120.026 24.6721 118.716 24.7813 117.395 24.7813C116.4 24.7813 115.381 24.7048 114.336 24.5516C113.29 24.3962 112.326 24.109 111.443 23.6912C110.562 23.2745 109.853 22.6798 109.312 21.9072C108.771 21.1358 108.501 20.1323 108.501 18.898C108.501 17.5105 108.831 16.2176 109.492 15.0193C110.156 13.8188 111.038 12.7162 112.137 11.7127C113.239 10.7104 114.457 9.80719 115.791 9.00533C117.125 8.20121 118.463 7.50746 119.805 6.92409C121.148 6.33845 122.393 5.86995 123.54 5.51857H108.501V0.00012207Z" fill="#808991"/>
</svg>

<svg xmlns="http://www.w3.org/2000/svg" width="128" height="25" fill="none" viewBox="0 0 128 25"><path fill="#808991" d="M.895 24.781V.001H20.16v5.518h-3.798q-1.455 0-2.546-.415a9 9 0 0 1-1.982-1.04 29 29 0 0 1-1.703-1.289 13.4 13.4 0 0 0-1.703-1.19A5.9 5.9 0 0 0 6.414.857v10.875a6.4 6.4 0 0 1 1.834-2.18q1.175-.892 2.793-.929.99 0 2.032.217 1.041.217 2.082.396t2.014.117a4 4 0 0 0 1.87-.63l-.96 5.486q-1.155.46-2.199.36a6.6 6.6 0 0 1-2-.508 27 27 0 0 1-1.866-.892 16 16 0 0 0-1.815-.83 4.5 4.5 0 0 0-1.839-.296q-.924.05-1.946.711v12.028zM36.944 24.781l-1.586-4.757h-7.434l-1.586 4.757h-5.785L28.748.001h5.817l8.196 24.78zm-1.816-5.487L29.113 1.122l-.86 2.644q-.694 2.05-.762 3.802-.064 1.749.185 3.284.248 1.537.545 2.942t.36 2.761q.068 1.352-.396 2.74zM57.99 0h5.487v24.781H57.99v-3.27a19.2 19.2 0 0 1-3.884 2.315 10.6 10.6 0 0 1-4.38.955q-1.649 0-2.725-.626a4.65 4.65 0 0 1-1.685-1.671 7.2 7.2 0 0 1-.86-2.343 14.4 14.4 0 0 1-.249-2.694V0h5.52V5.52q0 1.915-.726 3.567a74 74 0 0 1-1.586 3.37 12.7 12.7 0 0 0-.977 2.644 12.2 12.2 0 0 0-.379 3.01q0 1.519.464 2.793.464 1.27 1.519 2.013 1.057.744 2.874.708a9.3 9.3 0 0 0 3.767-.937 16.3 16.3 0 0 0 3.307-2.104zM75.3 24.781a8.9 8.9 0 0 1-3.617-.774q-1.768-.779-3.19-2.38-1.42-1.602-2.262-4.08t-.843-5.884q0-2.08.446-4.144a12.8 12.8 0 0 1 1.438-3.766 7.7 7.7 0 0 1 2.658-2.726Q71.6 0 74.043 0h10.61V5.52h-4.725q-.825 0-1.487-.379a7.3 7.3 0 0 1-1.275-.941 42 42 0 0 0-1.289-1.14 5.7 5.7 0 0 0-1.568-.946q-1.716-.725-3.023-.527t-2.18 1.076q-.876.876-1.357 2.163a9.8 9.8 0 0 0-.576 2.761q-.1 1.47.13 2.82.463 2.577 1.933 4.627a10.26 10.26 0 0 0 3.685 3.19q2.217 1.14 4.857 1.008a7.6 7.6 0 0 0 3.506-1.072q1.652-.975 2.28-2.73.625-1.815-.1-2.739-.726-.928-2.644-.103-1.092.465-2.23 1.076a8.6 8.6 0 0 1-2.366.856q-1.221.248-2.64-.31l-.96-5.487a3.97 3.97 0 0 0 1.865.63 8.5 8.5 0 0 0 2.019-.117q1.041-.18 2.081-.396a10 10 0 0 1 2.032-.217q1.622 0 2.478.762.86.762 1.208 1.932.346 1.173.347 2.46a13.9 13.9 0 0 1-.545 4.117 10.7 10.7 0 0 1-1.766 3.519 8.7 8.7 0 0 1-2.943 2.464q-1.753.906-4.1.905M98.827 19.33q1.32.1 2.776-.198a9.1 9.1 0 0 0 2.707-1.009 5.4 5.4 0 0 0 1.983-1.9l.662.332a17.7 17.7 0 0 1-2.347 4.181q-1.419 1.865-3.339 2.955-1.915 1.091-4.393 1.09-2.713 0-4.694-1.121a9.85 9.85 0 0 1-3.29-3.023 13.8 13.8 0 0 1-1.932-4.23 18.2 18.2 0 0 1-.626-4.744q0-2.08.445-4.144a12.8 12.8 0 0 1 1.438-3.766 7.7 7.7 0 0 1 2.658-2.726Q92.546 0 94.993 0H105.6V5.52h-4.726q-.825 0-1.487-.379a7.4 7.4 0 0 1-1.27-.941 49 49 0 0 0-1.29-1.14 5.7 5.7 0 0 0-1.567-.946q-1.722-.725-3.028-.527-1.302.198-2.18 1.076-.876.876-1.357 2.163a9.8 9.8 0 0 0-.576 2.761q-.1 1.47.13 2.82.068.335.149.68.084.349.185.708a6.2 6.2 0 0 1 1.834-2.244q1.17-.89 2.824-.928 1.023 0 2.064.217 1.044.217 2.068.396 1.022.18 1.996.117a4 4 0 0 0 1.87-.63l-.96 5.486q-1.352.528-2.541.33a8 8 0 0 1-2.298-.758q-1.109-.563-2.167-1.076a6.7 6.7 0 0 0-2.145-.644q-1.09-.13-2.248.527 1.158 2.811 3.767 4.644 2.612 1.834 6.181 2.1M108.501 0h19.27V5.52q-1.851 0-3.983.675a20.4 20.4 0 0 0-4.163 1.87 20.4 20.4 0 0 0-3.654 2.707 13.6 13.6 0 0 0-2.081 2.577q-.862 1.388-1.077 2.694-.213 1.307.464 2.198.68.892 2.496 1.054.96.1 2.248-.063a24 24 0 0 0 2.64-.495 23 23 0 0 0 2.546-.78q1.193-.445 1.951-.973l2.613 5.055q-1.127.83-2.811 1.455a20 20 0 0 1-3.636.96q-1.947.329-3.929.328-1.492 0-3.059-.23a10.2 10.2 0 0 1-2.893-.86 5.33 5.33 0 0 1-2.131-1.784q-.811-1.157-.811-3.009 0-2.08.991-3.879.996-1.8 2.645-3.306a23 23 0 0 1 3.654-2.708 34 34 0 0 1 4.014-2.08 35 35 0 0 1 3.735-1.406h-15.039z"/></svg>
